public/blog-icon.svg

<svg xmlns="http://www.w3.org/2000/svg" xmlns:xlink="http://www.w3.org/1999/xlink" viewBox="0,0,256,256" width="48px" height="48px" fill-rule="nonzero"><g fill="none" fill-rule="nonzero" stroke="none" stroke-width="1" stroke-linecap="butt" stroke-linejoin="miter" stroke-miterlimit="10" stroke-dasharray="" stroke-dashoffset="0" font-family="none" font-weight="none" font-size="none" text-anchor="none" style="mix-blend-mode: normal"><g transform="scale(5.33333,5.33333)"><path d="M39,8h-30c-1.657,0 -3,1.343 -3,3v23c0,1.656 1.343,3 3,3h3v7l8.556,-7h18.444c1.656,0 3,-1.344 3,-3v-23c0,-1.657 -1.344,-3 -3,-3z" fill="#cfd8dc"></path><path d="M42,32.002c0,2.481 -2.016,4.499 -4.499,4.499h-16.504l-4.498,-7.501h25.501z" fill="#b0bec5"></path><path d="M16,29l-4,-7v-3h8v3z" fill="#ffffff"></path><path d="M20,22l-4,-1l-3.997,1v-17h7.997z" fill="#4c89af"></path><path d="M14.286,26l1.714,3l1.714,-3z" fill="#37474f"></path><path d="M16,5v16l4,1v-17z" fill="#385e8e"></path><path d="M16,29l5,8h18c1.656,0 3,-1.344 3,-3v-5z" fill="#90a4ae"></path></g></g></svg>

<svg xmlns="http://www.w3.org/2000/svg"  viewBox="0 0 48 48" width="48px" height="48px"><path fill="#CFD8DC" d="M39,8H9c-1.657,0-3,1.343-3,3v23c0,1.656,1.343,3,3,3h3l0,7l8.556-7H39c1.656,0,3-1.344,3-3V11C42,9.343,40.656,8,39,8z"/><path fill="#B0BEC5" d="M42,32.002c0,2.481-2.016,4.499-4.499,4.499H20.997L16.499,29H42V32.002z"/><path fill="#FFF" d="M16 29L12 22 12 19 20 19 20 22z"/><path fill="#4CAF50" d="M20 22L16 21 12.003 22 12.003 5 20 5z"/><path fill="#37474F" d="M14.286 26L16 29 17.714 26z"/><path fill="#388E3C" d="M16 5L16 21 20 22 20 5z"/><path fill="#90A4AE" d="M16,29l5,8h18c1.656,0,3-1.344,3-3v-5H16z"/></svg>
